assets/img/dog-icon-small.svg

<svg width="28" height="24" viewBox="0 0 28 24" fill="none" xmlns="http://www.w3.org/2000/svg">
<path d="M12.6666 2.81256H15.3333M23.3334 12C22.4445 19 20.2223 22.5 16.6667 22.5H11.3333C7.77766 22.5 5.55541 19 4.6665 12" stroke="#FA7353" stroke-width="3" stroke-linecap="round" stroke-linejoin="round"/>
<path d="M14 19.8749V22.4999M11.3333 10.6875V10.7006M16.6667 10.6875V10.7006M12.6666 17.2499C12.6666 18.1249 13.1111 18.5624 14 18.5624C15.3334 18.5624 15.3334 18.1254 15.3334 17.2499H12.6666ZM4.66653 1.5L12.6666 2.77312L4.34919 11.5511C4.11573 11.8099 3.78951 11.9696 3.439 11.9968C3.08848 12.0239 2.74089 11.9164 2.46916 11.6968C2.28441 11.5494 2.14554 11.3538 2.06844 11.1324C1.99133 10.9109 1.9791 10.6726 2.03316 10.4447L4.66653 1.5ZM23.3335 1.5L15.3334 2.77312L23.6508 11.5511C24.1281 12.0866 24.9695 12.1522 25.5308 11.6968C25.7156 11.5494 25.8545 11.3538 25.9316 11.1324C26.0087 10.9109 26.0209 10.6726 25.9668 10.4447L23.3335 1.5Z" stroke="#FA7353" stroke-width="3" stroke-linecap="round" stroke-linejoin="round"/>
</svg>

<svg xmlns="http://www.w3.org/2000/svg" width="28" height="24" fill="none"><path stroke="#FA7353" stroke-linecap="round" stroke-linejoin="round" stroke-width="3" d="M12.667 2.813h2.666m8 9.187q-1.332 10.5-6.666 10.5h-5.334Q6 22.5 4.667 12"/><path stroke="#FA7353" stroke-linecap="round" stroke-linejoin="round" stroke-width="3" d="M14 19.875V22.5m-2.667-11.812v.013m5.334-.014v.014m-4 6.549q0 1.312 1.333 1.312c1.333 0 1.333-.437 1.333-1.312zm-8-15.75 8 1.273-8.318 8.778a1.375 1.375 0 0 1-1.88.146 1.228 1.228 0 0 1-.436-1.252zm18.667 0-8 1.273 8.317 8.778a1.38 1.38 0 0 0 1.88.146c.185-.148.324-.343.4-.565.078-.221.09-.46.036-.687z"/></svg>
